X:04011
T: Torryburn Lassies
R: reel
B: RSCDS 4-1
N: Renamed by N. Gow from "Tadie's Wattle" in Aird 1782.
Z: 1997 by John Chambers <jc:trillian.mit.edu>
M: C|
L: 1/8
%--------------------
K: G
D \
|: "G"G2BG Bdd2 | "C"c2ec egg2 | "G"G2BG Bcdg | "C"ed"Am"cB "D7"([A2F2] "G"G)z :|
|: "G"g2bg "D7"afed  | "C"edef "G"gdBG | "G"g2bg "D7"afed  | "C"edef "G"g2 ga |
| "G"bagf gfed | "C"edef "G"gdBG | "Am"cBcd "C"efge | "G"dBGB "D7"([A2F2] "G"G)z :|
